X:199
T: Schlaefert dich noch?
N: A0237
O: Europa, Mitteleuropa, Deutschland
N: Forster II No. 66.
R: Romanze, Ballade, Lied
M: 3/2
L: 1/4
K: D
D2 | D4D2 | E4E2 | =F3ED2 | =C4
C2 | =F,4F,2 | =C4C2 | D3E=F2 | E4z2 |
A,3B,C2 | D4z2 | A,3B,C2 | D4

@@@ Tune index: 199
